X:68
T: Graserin und Reiter
N: Q0149P
O: Mitteleuropa, Luxemburg
N: Modulation in die Dominanttonart.
N: Vorletzte Zeile = Refrain auf sinnfreie Silben.
R: Ballade, Verfuehrung, Verlassen des Elternhauses
M: 2/4
L: 1/16
K: G
D2 | G2A2B2c2 | d2d2d2
d2 | e2f2g2e2 | d4z2
d2 | g2d2e2d2 | B2G2G4
A2ABc2AA | B2c2d2
g2 | f2e2d2^c2 | d4z2
d2 | g2d2e2d2 | B2G2G4
A2ABc2AA | B2c2d2
g2 | f2e2d2^c2 | d4z2

